X:57
T:Marquis Wellinton. JC.055
R:March
S:John Clare,Poet,Helpston. (1793-1864)
N:See tune 185.
O:England
A:Northamptonshire
Z:vmp.P. Headford
M:6/8
L:1/8
Q:3/8=70
K:D
a/g/|\
f2d {e}dcd|e2A A2c|d2e f2g|a2b a2g|!
f2d {e}dcd|e2″ sic”A2Ac|d2e f2g|e2c d2:|!
a|g2a gab|a2g f2a|b2a gab|a2g f2a|!
bag agf|gfe fed|cde fed|cde Aag|!
f2d {e}dcd|e2A A2c|d2e f2g|a2b a2g|!
f2d {e}dcd|e2A A2c|d2e f2g|e2d d2|]

